static/logos/sanity-glyph-color.svg

<svg width="40" height="50" viewBox="0 0 40 50" fill="none" xmlns="http://www.w3.org/2000/svg">
<path d="M4.33966 6.40674C4.33966 13.1433 8.57402 17.1515 17.0512 19.2651L26.0341 21.3113C34.057 23.1216 38.9429 27.6182 38.9429 34.9443C39.0053 38.1359 37.949 41.2516 35.9513 43.769C35.9513 36.46 32.1029 32.5106 22.8198 30.1361L13.9997 28.1657C6.93684 26.5825 1.48537 22.886 1.48537 14.9284C1.44822 11.8555 2.45234 8.85763 4.33966 6.40674Z" fill="#DD4E3B"/>
<path opacity="0.7" d="M30.4349 33.1506C34.2662 35.5588 35.9462 38.927 35.9462 43.7605C32.7749 47.752 27.2034 49.9919 20.6547 49.9919C9.63179 49.9919 1.91742 44.6617 0.203125 35.3989H10.7889C12.1518 39.6514 15.7604 41.6218 20.5776 41.6218C26.4577 41.6218 30.3662 38.5397 30.4434 33.1336" fill="#E78376"/>
<path opacity="0.7" d="M9.8411 16.3935C8.0915 15.372 6.6561 13.9042 5.68723 12.1459C4.71836 10.3875 4.25219 8.4043 4.3382 6.40668C7.3982 2.44896 12.7211 0.0322266 19.2097 0.0322266C30.4384 0.0322266 36.9355 5.8593 38.5384 14.061H28.3555C27.2327 10.8275 24.4212 8.30974 19.2955 8.30974C13.8183 8.30974 10.0811 11.4422 9.86679 16.3935" fill="#E78376"/>
</svg>

<svg xmlns="http://www.w3.org/2000/svg" width="51.2" height="64" fill="none" viewBox="0 0 40 50"><path fill="#DD4E3B" d="M4.34 6.407c0 6.736 4.234 10.744 12.711 12.858l8.983 2.046c8.023 1.81 12.909 6.307 12.909 13.633a13.759 13.759 0 0 1-2.992 8.825c0-7.309-3.848-11.258-13.131-13.633L14 28.166c-7.063-1.584-12.515-5.28-12.515-13.238A13.691 13.691 0 0 1 4.34 6.407Z"/><path fill="#E78376" d="M30.435 33.15c3.831 2.409 5.511 5.777 5.511 10.61-3.171 3.992-8.743 6.232-15.291 6.232-11.023 0-18.738-5.33-20.452-14.593H10.79c1.363 4.252 4.971 6.223 9.789 6.223 5.88 0 9.788-3.082 9.865-8.488M9.841 16.393a11.163 11.163 0 0 1-4.154-4.247 10.915 10.915 0 0 1-1.349-5.74C7.398 2.45 12.721.033 19.21.033c11.228 0 17.725 5.827 19.328 14.029H28.356c-1.123-3.233-3.935-5.751-9.06-5.751-5.478 0-9.215 3.132-9.43 8.083" opacity=".7"/></svg>
